X:1
T:I’m Going Through
T:Herbert Buffum, arr. by William B. Olmstead
T:I’m Going Through
T:Public Domain
T:Public Domain
T:Public Domain
C:Herbert Buffum, arr. by William B. Olmstead
Z:Public Domain
%%score ( 1 2 ) ( 3 4 )
L:1/8
M:4/4
K:Ab
V:1 treble 
V:2 treble 
V:3 bass 
V:4 bass 
V:1
 [Ec]2 [Ec]>[DB] [CA] [CA]2 [EA] | [DF]2 [FA]>[DF] [CE]3 [CE] | [EA]2 [FA]>[_FA] [EA] [Ec]2 [Ec] | %3
w: 1.~Lord, I have start- ed to|walk in the light That|shines on my path- way so|
w: 2.~Ma- ny once start- ed to|run in this race, But|with our Re- deem- er they|
w: 3.~Let me but fol- low my|Lord all a- lone, And|have for my pil- low, like|
w: 4.~Come then, my com- rades, and|walk in this way That|leads to the king- dom of|
 (cB)[_DB][Dc] [DB]3 z | [Ee]2 [Ee]>[Ec] [CA]2 [Ec][Ec] | (B<A) [FA]>[DF] [CE]3 [CE] | %6
w: clear- * ly, so bright;|bade the world and its fol-|lies * a- dieu, And now|
w: could * not keep pace;|thers a- ccept- ed be- cause|it * was new, But not|
w: Ja- * cob, a stone,|ther than vain world- ly plea-|sures * pur- sue, Than turn|
w: un- * end- ing day;|from your i- dols and join|with * the few, Start in|
 [EA]2 [FA]>[_FA] [Ec] [Ae]2 [Bd] | [Ac]2 [GB][GB] A3 z ||"^Refrain" [Ec]2 [Ec]<[DB] [CA]3 z | %9
w: my Sav- ior I mean to|go through. * *||
w: ry ma- ny seem bound to|go through. * *||
w: this path- way and fail to|go through. * *||
w: your Sav- ior, and keep go-|ing through. * *||
 [DA]2 [FA]<[DF] [CE]3 z | [EA]2 [EA]>[EB] [Ec]3 [Ec] | [=Dc][DB][DB][Dc] [EB]3 z | %12
w: |||
w: |||
w: |||
w: |||
 [Ee]2 [Ae]>[Ec] [CA]2 [Ec][Ec] | [FB]>[FA] [FA][DF] [CE]3 z | [EA]2 [FA][_FA] (c>e) [Ec][Ee] | %15
w: |||
w: |||
w: |||
w: |||
 [Ac]2 [GB]<[GB] A3 z |] %16
w: |
w: |
w: |
w: |
V:2
 x8 | x8 | x8 | =D2 x6 | x8 | F x7 | x8 | x4 A3 x || x8 | x8 | x8 | x8 | x8 | x8 | x4 E2 x2 | %15
w: |||I’ve||with||||||||||
w: |||O-||ve-||||||||||
w: |||Ra-||from||||||||||
w: |||Turn||with||||||||||
 x4 A3 x |] %16
w: |
w: |
w: |
w: |
V:3
 [A,,E,]2 [A,,F,]>[A,,G,] [A,,A,] [A,,E,]2 [C,A,] | [D,A,]2 [D,A,]>[D,A,] [A,,A,]3 [A,,A,] | %2
w: ~ ~ ~ ~ ~ ~|~~ ~ ~ ~ ~|
 [A,C]2 [A,D]>[A,D] [A,C] A,2 A, | [F,A,]2 [B,,A,][B,,F,] [E,G,]3 z | %4
w: ~ ~ ~ ~ ~ ~|~ ~ ~ ~|
 [A,C]2 [A,C]>A, A,2 [C,A,][C,A,] | [D,A,]2 [D,A,]>[D,A,] [A,,A,]3 [A,,A,] | %6
w: ~ ~ ~ ~ ~~ ~|~ ~ ~ ~ ~|
 [A,C]2 [A,D]>[A,D] [A,C] [A,C]2 [D,F] | [E,E]2 [E,D][E,D] [A,,C]3 z || %8
w: ~ ~ ~ ~ ~ ~|I’m go- ing through,|
 [A,,A,]2 [C,A,]<[E,G,] A,3 z | [D,F,]2 [D,A,]<[D,A,] [A,,A,]3 z | [A,,C]2 [C,A,]>[E,G,] A,3 A, | %11
w: I’m go- ing through,|pay the price, what-|ev- er o- thers do;|
 [F,A,][F,A,][B,,A,][B,,A,] [E,G,]3 z | [A,C]2 [A,C]>A, A,2 [C,A,][C,A,] | %13
w: the way with the Lord’s|de- spis- èd few; I’m go-|
 [D,A,]>[D,A,] [D,A,][D,A,] [A,,A,]3 z | [A,C]2 [A,D][A,D] [A,C]2 A,[A,C] | %15
w: Je- sus, I’m go- ing|through. * * * * *|
 [E,E]2 [E,D]<[E,D] [A,,C]3 z |] %16
w: |
V:4
 x8 | x8 | x5 A,2 A, | x8 | x7/2 A,/ A,2 x2 | x8 | x8 | x8 || x4 A,3 x | x8 | x4 A,3 A, | x8 | %12
w: ||~ ~||~ ~||||I’ll||I’ll take||
 x7/2 A,/ A,2 x2 | x8 | x6 A, x | x8 |] %16
w: ing through,||||

